X: 8019
T: Connemara Stockings, The
R: reel
M: 4/4
K: Gmajor
|:g2fg edBA|GABG AGEF|G2Bd eaag|1 fdef gaba:|2 fdef ~g3f||
gbef gbeg|fade fadf|gbef gbeg|fedf e2ed|
ebba b2ag|faab afdf|gabg f2af|edef gfef||

